src/cui/assets/icons/info.svg

<svg fill="none" height="24" viewBox="0 0 24 24" width="24" xmlns="http://www.w3.org/2000/svg" xmlns:xlink="http://www.w3.org/1999/xlink"><mask id="a" height="16" maskUnits="userSpaceOnUse" width="16" x="4" y="4"><path d="m12 20c-4.411 0-8-3.589-8-8s3.589-8 8-8 8 3.589 8 8-3.589 8-8 8z" fill="#fff"/></mask><path clip-rule="evenodd" d="m2 12c0-5.523 4.477-10 10-10 5.522 0 10 4.477 10 10s-4.478 10-10 10c-5.523 0-10-4.477-10-10zm10 8c-4.411 0-8-3.589-8-8s3.589-8 8-8 8 3.589 8 8-3.589 8-8 8zm-1-12c0-.552.448-1 1-1s1 .448 1 1-.448 1-1 1-1-.448-1-1zm0 3c0-.552.448-1 1-1s1 .448 1 1v5c0 .552-.448 1-1 1s-1-.448-1-1z" fill="#121286" fill-rule="evenodd"/><g mask="url(#a)"><path d="m12 2c-5.523 0-10 4.477-10 10s4.477 10 10 10c5.522 0 10-4.477 10-10s-4.478-10-10-10z" fill="#121286"/><path clip-rule="evenodd" d="m11 8c0-.552.448-1 1-1s1 .448 1 1-.448 1-1 1-1-.448-1-1zm0 3c0-.552.448-1 1-1s1 .448 1 1v5c0 .552-.448 1-1 1s-1-.448-1-1z" fill="#fff" fill-rule="evenodd"/></g></svg>

<svg width="24" height="24" viewBox="0 0 24 24" fill="none" xmlns="http://www.w3.org/2000/svg">
<path fill-rule="evenodd" clip-rule="evenodd" d="M2 12C2 6.477 6.477 2 12 2C17.522 2 22 6.477 22 12C22 17.523 17.522 22 12 22C6.477 22 2 17.523 2 12ZM12 20C7.589 20 4 16.411 4 12C4 7.589 7.589 4 12 4C16.411 4 20 7.589 20 12C20 16.411 16.411 20 12 20ZM11 8C11 7.448 11.448 7 12 7C12.552 7 13 7.448 13 8C13 8.552 12.552 9 12 9C11.448 9 11 8.552 11 8ZM11 11C11 10.448 11.448 10 12 10C12.552 10 13 10.448 13 11V16C13 16.552 12.552 17 12 17C11.448 17 11 16.552 11 16V11Z" fill="#121286"/>
<mask id="mask0_668_993" style="mask-type:alpha" maskUnits="userSpaceOnUse" x="4" y="4" width="16" height="16">
<path d="M12 20C7.589 20 4 16.411 4 12C4 7.589 7.589 4 12 4C16.411 4 20 7.589 20 12C20 16.411 16.411 20 12 20Z" fill="white"/>
</mask>
<g mask="url(#mask0_668_993)">
<path d="M12 2C6.477 2 2 6.477 2 12C2 17.523 6.477 22 12 22C17.522 22 22 17.523 22 12C22 6.477 17.522 2 12 2Z" fill="#121286"/>
<path fill-rule="evenodd" clip-rule="evenodd" d="M11 8C11 7.448 11.448 7 12 7C12.552 7 13 7.448 13 8C13 8.552 12.552 9 12 9C11.448 9 11 8.552 11 8ZM11 11C11 10.448 11.448 10 12 10C12.552 10 13 10.448 13 11V16C13 16.552 12.552 17 12 17C11.448 17 11 16.552 11 16V11Z" fill="white"/>
</g>
</svg>
